X:508
T:The Dissipated Youth
M:6/8
L:1/8
B:O'Neill's 508
N:"Graceful" "collected by F. O'Neill"
Z:Transcribed by Dave Wooldridge
K:G
(E/2F/2) \
|GAB BAB|G3 E2 F|GAB dBG|A3 A2 B/2d/2|
e2 e d2 d|c2 c BAG|cBAB GED|E2 F G2||
(F/2E/2) \
|DB,.D  DB,.D|G3 G2 z|DB,.D  DB,.D|A3 A2 z|
e2 e ded|c2 c BAG|cBAB GED|E2 F G2||
